deepin/devices/media-optical-symbolic.svg

<?xml version="1.0" encoding="iso-8859-1"?>
<!-- Generator: Adobe Illustrator 18.0.0, SVG Export Plug-In . SVG Version: 6.00 Build 0)  -->
<!DOCTYPE svg PUBLIC "-//W3C//DTD SVG 1.1//EN" "http://www.w3.org/Graphics/SVG/1.1/DTD/svg11.dtd">
<svg version="1.1" id="&#x56FE;&#x5C42;_1" xmlns="http://www.w3.org/2000/svg" xmlns:xlink="http://www.w3.org/1999/xlink" x="0px"
	 y="0px" viewBox="0 0 16 16" style="enable-background:new 0 0 16 16;" xml:space="preserve">
<g>
	<circle style="fill:#9FA0A0;" cx="7.995" cy="8.003" r="1"/>
	<path style="fill:#9FA0A0;" d="M14.364,5.11l0.005-0.002c-0.012-0.027-0.031-0.051-0.044-0.078
		c-0.157-0.334-0.333-0.658-0.538-0.961c-0.035-0.053-0.078-0.101-0.114-0.153c-0.192-0.267-0.401-0.52-0.627-0.757
		c-0.037-0.038-0.062-0.083-0.1-0.121c-0.036-0.036-0.079-0.061-0.116-0.096c-0.244-0.234-0.506-0.45-0.782-0.648
		c-0.042-0.03-0.081-0.064-0.124-0.093c-0.317-0.216-0.656-0.402-1.008-0.565c-0.014-0.006-0.026-0.016-0.04-0.023l-0.001,0.003
		C9.994,1.217,9.022,0.989,7.995,0.989c-3.856,0-6.994,3.14-6.994,6.998c0,1.026,0.227,1.999,0.626,2.878l-0.005,0.002
		c0.013,0.029,0.033,0.054,0.046,0.083c0.156,0.332,0.33,0.653,0.534,0.954c0.037,0.056,0.082,0.107,0.121,0.162
		c0.189,0.262,0.394,0.51,0.616,0.743c0.039,0.041,0.066,0.088,0.107,0.129c0.039,0.039,0.085,0.065,0.124,0.103
		c0.24,0.229,0.495,0.44,0.765,0.634c0.046,0.033,0.089,0.07,0.136,0.102c0.313,0.213,0.648,0.396,0.995,0.557
		c0.017,0.008,0.032,0.02,0.05,0.028l0.001-0.003c0.879,0.399,1.852,0.627,2.878,0.627c3.856,0,6.994-3.14,6.994-6.998
		C14.989,6.961,14.762,5.989,14.364,5.11z M5.51,7.987c0-1.419,1.121-2.573,2.5-2.573s2.5,1.154,2.5,2.573s-1.121,2.574-2.5,2.574
		S5.51,9.406,5.51,7.987z M2.001,7.987c0-3.308,2.688-5.998,5.994-5.998c0.88,0,1.713,0.195,2.467,0.537L9.458,4.743
		c-0.443-0.207-0.931-0.33-1.449-0.33c-1.93,0-3.5,1.603-3.5,3.573c0,0.513,0.111,0.999,0.302,1.44l-2.275,1.026
		C2.196,9.7,2.001,8.867,2.001,7.987z M7.995,13.985c-0.88,0-1.714-0.195-2.467-0.538l1.007-2.231
		c0.45,0.215,0.947,0.345,1.476,0.345c1.93,0,3.5-1.604,3.5-3.574c0-0.516-0.112-1.004-0.306-1.447l2.25-1.018
		c0.341,0.753,0.536,1.586,0.536,2.465C13.989,11.294,11.301,13.985,7.995,13.985z"/>
</g>
</svg>

<?xml version="1.0" encoding="UTF-8" standalone="no"?>
<!-- Created with Inkscape (http://www.inkscape.org/) -->

<svg
   xmlns:dc="http://purl.org/dc/elements/1.1/"
   xmlns:cc="http://creativecommons.org/ns#"
   xmlns:rdf="http://www.w3.org/1999/02/22-rdf-syntax-ns#"
   xmlns:svg="http://www.w3.org/2000/svg"
   xmlns="http://www.w3.org/2000/svg"
   xmlns:inkscape="http://www.inkscape.org/namespaces/inkscape"
   version="1.1"
   width="100%"
   height="100%"
   viewBox="0 0 16 16"
   id="图层_1"
   xml:space="preserve"><metadata
     id="metadata13"><rdf:RDF><cc:Work
         rdf:about=""><dc:format>image/svg+xml</dc:format><dc:type
           rdf:resource="http://purl.org/dc/dcmitype/StillImage" /></cc:Work></rdf:RDF></metadata><defs
     id="defs11" /><g
     id="g3"><circle
       cx="7.9949999"
       cy="8.0030003"
       r="1"
       id="circle5"
       style="fill:#9fa0a0" /><path
       d="M 14.364,5.11 14.369,5.108 C 14.357,5.081 14.338,5.057 14.325,5.03 14.168,4.696 13.992,4.372 13.787,4.069 13.752,4.016 13.709,3.968 13.673,3.916 13.481,3.649 13.272,3.396 13.046,3.159 13.009,3.121 12.984,3.076 12.946,3.038 12.91,3.002 12.867,2.977 12.83,2.942 12.586,2.708 12.324,2.492 12.048,2.294 12.006,2.264 11.967,2.23 11.924,2.201 11.607,1.985 11.268,1.799 10.916,1.636 10.902,1.63 10.89,1.62 10.876,1.613 L 10.875,1.616 C 9.994,1.217 9.022,0.989 7.995,0.989 c -3.856,0 -6.994,3.14 -6.994,6.998 0,1.026 0.227,1.999 0.626,2.878 l -0.005,0.002 c 0.013,0.029 0.033,0.054 0.046,0.083 0.156,0.332 0.33,0.653 0.534,0.954 0.037,0.056 0.082,0.107 0.121,0.162 0.189,0.262 0.394,0.51 0.616,0.743 0.039,0.041 0.066,0.088 0.107,0.129 0.039,0.039 0.085,0.065 0.124,0.103 0.24,0.229 0.495,0.44 0.765,0.634 0.046,0.033 0.089,0.07 0.136,0.102 0.313,0.213 0.648,0.396 0.995,0.557 0.017,0.008 0.032,0.02 0.05,0.028 l 0.001,-0.003 c 0.879,0.399 1.852,0.627 2.878,0.627 3.856,0 6.994,-3.14 6.994,-6.998 0,-1.027 -0.227,-1.999 -0.625,-2.878 z M 5.51,7.987 c 0,-1.419 1.121,-2.573 2.5,-2.573 1.379,0 2.5,1.154 2.5,2.573 0,1.419 -1.121,2.574 -2.5,2.574 -1.379,0 -2.5,-1.155 -2.5,-2.574 z m -3.509,0 c 0,-3.308 2.688,-5.998 5.994,-5.998 0.88,0 1.713,0.195 2.467,0.537 L 9.458,4.743 C 9.015,4.536 8.527,4.413 8.009,4.413 c -1.93,0 -3.5,1.603 -3.5,3.573 0,0.513 0.111,0.999 0.302,1.44 L 2.536,10.452 C 2.196,9.7 2.001,8.867 2.001,7.987 z m 5.994,5.998 c -0.88,0 -1.714,-0.195 -2.467,-0.538 l 1.007,-2.231 c 0.45,0.215 0.947,0.345 1.476,0.345 1.93,0 3.5,-1.604 3.5,-3.574 0,-0.516 -0.112,-1.004 -0.306,-1.447 l 2.25,-1.018 c 0.341,0.753 0.536,1.586 0.536,2.465 -0.002,3.307 -2.69,5.998 -5.996,5.998 z"
       inkscape:connector-curvature="0"
       id="path7"
       style="fill:#9fa0a0" /></g></svg>
